lib/logo_tmp/nrk-logo-nrk-sapmi-with-bg.svg

<svg width="98" height="24" viewBox="0 0 98 24" fill="none" xmlns="http://www.w3.org/2000/svg">
<rect width="98" height="24" fill="#1767CE"/>
<path d="M6.00427 17.9999V6.00097H9.94146V17.9999H6.00427ZM15.2981 7.91066L17.5623 17.9999H13.2534L10.5498 6.00097H12.9664C13.5206 5.99378 14.0583 6.18913 14.4788 6.55027C14.8999 6.89626 15.1892 7.37658 15.2981 7.91066ZM18.1538 17.9999V6.00097H22.091V17.9999H18.1538ZM25.0647 10.564C24.6405 10.5681 24.223 10.4571 23.8568 10.2428C23.4955 10.034 23.1954 9.73384 22.9865 9.37248C22.7721 9.00621 22.661 8.58864 22.6652 8.1642C22.6604 7.74234 22.7715 7.32726 22.9865 6.96431C23.1976 6.60687 23.4974 6.30997 23.8568 6.1024C24.2231 5.88838 24.6405 5.77739 25.0647 5.78126C25.4865 5.77672 25.9014 5.88781 26.2645 6.1024C26.6203 6.31179 26.9169 6.60844 27.1263 6.96431C27.3411 7.32736 27.4522 7.74237 27.4476 8.1642C27.4515 8.58861 27.3405 9.00611 27.1263 9.37248C26.9191 9.73225 26.6222 10.0322 26.2645 10.2428C25.9014 10.4579 25.4862 10.569 25.0642 10.564H25.0647ZM28.0559 17.9999V6.00097H31.9934V17.9999H28.0559ZM36.978 12.5581C36.9891 12.5698 37.0735 12.7078 37.2314 12.9721C37.3893 13.2365 37.5949 13.5746 37.8482 13.9862C38.1017 14.3976 38.3692 14.8341 38.6506 15.2959C38.932 15.7576 39.1969 16.1942 39.4451 16.6057C39.6924 17.0171 39.974 17.4818 40.29 17.9999H35.9641C35.6936 17.5605 35.4484 17.1633 35.2287 16.8084C35.0091 16.4535 34.7756 16.0705 34.5281 15.6592C34.2801 15.2484 34.0349 14.8484 33.7925 14.4593C33.5501 14.0703 33.3418 13.7295 33.1675 13.4369C32.9925 13.1442 32.8713 12.947 32.8039 12.8454C32.6368 12.5933 32.5379 12.3022 32.517 12.0004C32.5337 11.7108 32.6269 11.4309 32.787 11.189C32.8546 11.0763 32.9786 10.8763 33.1588 10.589C33.339 10.3017 33.5503 9.96093 33.7925 9.5666C34.0347 9.17227 34.2799 8.76948 34.5281 8.35825C34.7763 7.94702 35.0098 7.56111 35.2287 7.20058C35.4488 6.84043 35.6939 6.44046 35.9641 6.00069H40.29L36.9439 11.4594C36.8404 11.6214 36.782 11.8082 36.7749 12.0004C36.786 12.2022 36.8565 12.3962 36.9774 12.5581H36.978Z" fill="white"/>
<path d="M51.6564 12.3599C51.4126 12.1083 51.1298 11.8989 50.8192 11.7401C50.4937 11.573 50.1548 11.4339 49.8063 11.3242C49.4487 11.211 49.0804 11.1147 48.7013 11.0352C48.4107 10.9675 48.14 10.8997 47.8892 10.8318C47.6588 10.7715 47.4345 10.6889 47.2195 10.5853C47.0347 10.4966 46.863 10.3823 46.7092 10.2458C46.5643 10.1162 46.4521 9.95325 46.3824 9.77061C46.3051 9.55582 46.2682 9.32825 46.2736 9.09968C46.2698 8.863 46.3066 8.62746 46.3824 8.40357C46.4511 8.20605 46.566 8.02834 46.7172 7.8857C46.874 7.74014 47.052 7.62 47.2449 7.52945C47.4654 7.42754 47.6994 7.35888 47.9395 7.32568C48.2251 7.28441 48.5134 7.26456 48.802 7.26627C49.0648 7.26679 49.3273 7.28087 49.5886 7.30845C49.8531 7.33644 50.1159 7.37902 50.3758 7.43605C50.6281 7.49158 50.8769 7.56246 51.1208 7.64828C51.3492 7.72792 51.5705 7.82725 51.7822 7.94514L52.0166 6.45129C51.7786 6.32534 51.529 6.223 51.2715 6.14569C51.009 6.06664 50.744 5.99862 50.4763 5.94164C50.2052 5.88483 49.9313 5.84243 49.6558 5.81459C49.3768 5.7863 49.0922 5.77214 48.802 5.77214C48.21 5.76565 47.6194 5.834 47.044 5.9756C46.5541 6.09556 46.0911 6.30886 45.6798 6.60411C45.3006 6.87987 44.9955 7.24748 44.7923 7.67346C44.5756 8.15223 44.4697 8.67491 44.4826 9.20155C44.473 9.60911 44.5383 10.0149 44.6752 10.3983C44.7952 10.7197 44.9804 11.0119 45.219 11.256C45.4552 11.4948 45.7263 11.6952 46.0227 11.8502C46.3371 12.0145 46.6649 12.1509 47.0024 12.258C47.354 12.3712 47.714 12.4674 48.0823 12.5466C48.3837 12.6144 48.6627 12.6851 48.9195 12.7589C49.1582 12.8256 49.3906 12.9136 49.614 13.022C49.8062 13.114 49.984 13.2342 50.1417 13.3786C50.2912 13.521 50.4083 13.6949 50.4847 13.8879C50.5736 14.1205 50.6163 14.3686 50.6105 14.618C50.6149 14.8832 50.5753 15.1472 50.4933 15.399C50.4198 15.6168 50.3062 15.8185 50.1584 15.9933C50.0099 16.1656 49.8274 16.3043 49.6227 16.4005C49.3914 16.5086 49.1461 16.583 48.8943 16.6215C48.587 16.6693 48.2764 16.6921 47.9654 16.6894C47.6631 16.6887 47.3612 16.6688 47.0613 16.63C46.7488 16.5904 46.4361 16.5365 46.1234 16.4684C45.8155 16.4019 45.511 16.3197 45.2112 16.2222C44.915 16.1266 44.6332 16.0276 44.3657 15.9254L44.5833 17.6063C44.8687 17.7143 45.1593 17.8077 45.454 17.8861C45.7214 17.9573 45.9924 18.014 46.2657 18.0559C46.528 18.0953 46.7904 18.1265 47.0529 18.1493C47.3154 18.1721 47.5804 18.1834 47.8479 18.1832C48.4473 18.187 49.0453 18.1244 49.6313 17.9965C50.15 17.8861 50.6438 17.6789 51.0877 17.3853C51.502 17.1073 51.8369 16.7238 52.059 16.2731C52.3034 15.7394 52.4209 15.1549 52.402 14.5668C52.4111 14.1286 52.3461 13.6921 52.2097 13.2761C52.0927 12.9338 51.9039 12.6212 51.6564 12.3599Z" fill="#D4EEFC"/>
<path d="M61.6769 16.9271C61.5545 16.9385 61.4312 16.9197 61.3175 16.8724C61.2038 16.8251 61.103 16.7507 61.0237 16.6554C60.8685 16.3834 60.804 16.0678 60.8398 15.7556L60.873 12.258C60.8767 11.8913 60.8317 11.5258 60.739 11.1713C60.6579 10.8603 60.5217 10.5669 60.3372 10.3051C60.1509 10.0494 59.9144 9.83552 59.6427 9.67694C59.3266 9.49524 58.9851 9.36364 58.6298 9.28671C58.1952 9.19155 57.7516 9.146 57.3071 9.15088C56.9543 9.15061 56.6019 9.17321 56.252 9.21852C55.9215 9.26091 55.5942 9.32622 55.2726 9.41403C54.9742 9.49601 54.6807 9.59523 54.3935 9.71117L54.1926 11.1543C54.4717 11.0528 54.7371 10.9679 54.9879 10.8997C55.2388 10.8315 55.4818 10.7752 55.7162 10.7299C55.946 10.6854 56.1781 10.6544 56.4114 10.6368C56.6398 10.6198 56.8657 10.6112 57.0892 10.611C57.4306 10.6037 57.7713 10.6437 58.1021 10.7299C58.3435 10.7912 58.5655 10.914 58.7469 11.0867C58.9085 11.2546 59.0239 11.4624 59.0818 11.6895C59.1532 11.9694 59.187 12.2578 59.1823 12.5469L59.1803 12.9728L57.2236 13.1072C56.5543 13.1261 55.8948 13.2759 55.2815 13.5483C54.8224 13.752 54.4261 14.0776 54.1343 14.4907C53.8867 14.8582 53.7554 15.2935 53.7576 15.7386C53.7545 16.1563 53.8553 16.5682 54.0508 16.9359C54.2556 17.3135 54.5637 17.6229 54.938 17.8269C55.3947 18.0679 55.9051 18.1849 56.4197 18.1665C56.9017 18.1777 57.3816 18.0972 57.8345 17.9291C58.2259 17.7738 58.5841 17.5432 58.8893 17.25C59.0053 17.1374 59.1153 17.0187 59.2188 16.8943C59.2513 17.0701 59.3126 17.2392 59.4002 17.3946C59.5493 17.6545 59.7787 17.8574 60.0529 17.9718C60.356 18.0954 60.6806 18.156 61.0073 18.1501C61.108 18.1501 61.2053 18.147 61.3002 18.1416C61.3934 18.136 61.4859 18.1217 61.5765 18.0989C61.6658 18.0763 61.7467 18.0567 61.8193 18.0395C61.8849 18.0248 61.9492 18.0049 62.0118 17.98L62.196 16.8428C62.1036 16.8748 62.0084 16.8976 61.9116 16.9107C61.8338 16.921 61.7554 16.9265 61.6769 16.9271ZM58.889 16.163C58.7075 16.3086 58.511 16.4339 58.303 16.5369C58.0957 16.6389 57.8762 16.7131 57.65 16.7576C57.4155 16.8033 57.1772 16.8259 56.9385 16.8252C56.6657 16.8333 56.3944 16.7811 56.1434 16.6724C55.939 16.5827 55.7666 16.4317 55.6492 16.2397C55.5332 16.0362 55.4753 15.804 55.4818 15.5691C55.4656 15.2859 55.5423 15.0052 55.6998 14.7708C55.8819 14.5551 56.1289 14.406 56.4027 14.3463C56.8305 14.2444 57.2694 14.1988 57.7086 14.2108H59.1747L59.1675 15.8959C59.0823 15.9927 58.9891 16.0822 58.889 16.163Z" fill="#D4EEFC"/>
<path d="M59.9522 5.10999H58.1442L56.7211 8.14916H58.0273L59.9522 5.10999Z" fill="#D4EEFC"/>
<path d="M70.2238 9.68569C69.6229 9.3126 68.9273 9.12663 68.2231 9.15086C67.8052 9.15297 67.3891 9.20704 66.9841 9.31186C66.5465 9.42487 66.1246 9.59324 65.7284 9.81302C65.6497 9.85631 65.5719 9.90442 65.4937 9.95309V9.16782L63.7863 9.4395V21.562H65.4937V17.7607C65.5052 17.7655 65.5158 17.7709 65.5275 17.776C65.8369 17.9061 66.1599 18.0001 66.4902 18.0561C66.8803 18.1214 67.2752 18.1526 67.6706 18.1495C68.4244 18.1627 69.1676 17.969 69.8218 17.5889C70.4643 17.2028 70.9865 16.641 71.3286 15.9678C71.7237 15.165 71.9164 14.2753 71.8892 13.3785C71.905 12.6202 71.7595 11.8674 71.4626 11.1713C71.2007 10.5647 70.7702 10.0484 70.2238 9.68569ZM69.7802 15.365C69.5791 15.8159 69.242 16.1903 68.8175 16.4344C68.3456 16.6851 67.818 16.808 67.2855 16.7912C67.0305 16.7914 66.7757 16.7714 66.5237 16.7315C66.2592 16.6888 65.9988 16.6236 65.7452 16.5366C65.6648 16.5083 65.5777 16.476 65.494 16.4449V11.0867C65.5163 11.0762 65.5392 11.0626 65.5612 11.0525C65.8068 10.9393 66.0357 10.843 66.2478 10.7635C66.4486 10.6875 66.656 10.6306 66.8672 10.5938C67.0552 10.5609 67.2454 10.5439 67.4362 10.5428C67.9524 10.5254 68.4648 10.6392 68.9266 10.8739C69.3302 11.0968 69.6462 11.4532 69.822 11.8838C70.035 12.4349 70.1348 13.0242 70.1153 13.6157C70.1331 14.2168 70.0186 14.8144 69.7802 15.365Z" fill="#D4EEFC"/>
<path d="M85.5347 9.50744C85.0782 9.25607 84.5637 9.13297 84.0445 9.15088C83.5939 9.14966 83.1465 9.22718 82.7219 9.38008C82.2906 9.53671 81.8844 9.7569 81.5163 10.0335C81.3078 10.1903 81.1094 10.3604 80.9223 10.5428C80.7507 10.1178 80.4481 9.76039 80.0597 9.52412C79.5976 9.27172 79.0775 9.14874 78.5529 9.16784C78.1052 9.16793 77.6607 9.24537 77.2386 9.3968C76.8054 9.55146 76.3965 9.76884 76.0247 10.0422C75.9044 10.13 75.7878 10.2253 75.6731 10.3252V9.16898L73.9654 9.42367V17.9979H75.6731V11.5378C75.8743 11.4041 76.084 11.2842 76.301 11.179C76.5665 11.0515 76.8442 10.9518 77.1297 10.8816C77.3928 10.8159 77.6625 10.7818 77.9334 10.78C78.1822 10.7722 78.4299 10.8155 78.6617 10.9073C78.8535 10.9897 79.0229 11.1177 79.1556 11.2806C79.3011 11.4699 79.4014 11.6909 79.4486 11.926C79.5139 12.2298 79.5448 12.5402 79.5407 12.8511V17.9959H81.2485V12.4945C81.2496 12.1697 81.228 11.8453 81.1838 11.5237C81.3774 11.3949 81.5779 11.2769 81.7843 11.1705C82.0453 11.0371 82.3206 10.9345 82.6047 10.8649C82.8732 10.798 83.1486 10.7637 83.4251 10.7627C83.671 10.7567 83.9157 10.8001 84.145 10.8903C84.3403 10.9709 84.5128 11.0992 84.6473 11.2639C84.7929 11.453 84.8932 11.6739 84.9403 11.909C85.0056 12.2129 85.0365 12.5234 85.0324 12.8344V17.9959H86.7401V12.4778C86.7617 11.8357 86.6593 11.1955 86.4388 10.5932C86.265 10.1393 85.9468 9.75725 85.5347 9.50744Z" fill="#D4EEFC"/>
<path d="M89.2683 17.9968H90.9761V9.16786L89.2683 9.42254V17.9968Z" fill="#D4EEFC"/>
<path d="M91.1435 6.03504C91.044 5.86088 90.903 5.71491 90.7333 5.61057C90.5595 5.50294 90.3593 5.44711 90.1557 5.44953C89.9495 5.44778 89.7468 5.5035 89.5697 5.61057C89.395 5.71423 89.2484 5.86004 89.1427 6.03504C89.0365 6.21138 88.9814 6.41445 88.9836 6.62106C88.9819 6.83019 89.037 7.03576 89.1427 7.21531C89.2449 7.39306 89.3924 7.53966 89.5697 7.63977C89.7484 7.74185 89.9505 7.79455 90.1557 7.79259C90.3583 7.79523 90.5578 7.74243 90.7333 7.63977C90.9056 7.53889 91.0475 7.3921 91.1435 7.21531C91.2441 7.03401 91.2961 6.82911 91.2942 6.62106C91.2966 6.41555 91.2446 6.21316 91.1435 6.03504Z" fill="#D4EEFC"/>
</svg>

<svg xmlns="http://www.w3.org/2000/svg" viewBox="0 0 98 24"><path fill="#1767CE" d="M0 0h98v24H0z"/><path fill="#fff" d="M6.004 18V6h3.937V18H6.004Zm9.294-10.09L17.562 18h-4.309L10.55 6h2.416a2.276 2.276 0 0 1 1.513.55c.42.345.71.826.82 1.36ZM18.154 18V6h3.937V18h-3.937Zm6.91-7.436a2.382 2.382 0 0 1-2.4-2.4 2.303 2.303 0 0 1 .323-1.2 2.411 2.411 0 0 1 3.278-.862c.355.21.652.506.861.862.215.363.326.778.322 1.2.003.425-.108.842-.322 1.208a2.4 2.4 0 0 1-.861.87 2.301 2.301 0 0 1-1.2.322ZM28.057 18V6h3.937V18h-3.937Zm8.922-5.442c.011.012.096.15.253.414.158.264.364.603.617 1.014a309.436 309.436 0 0 1 1.597 2.62c.247.411.529.876.845 1.394h-4.326c-.27-.44-.516-.837-.735-1.192-.22-.355-.453-.738-.7-1.149-.249-.41-.494-.81-.737-1.2-.242-.389-.45-.73-.625-1.022a18.04 18.04 0 0 0-.363-.592 1.748 1.748 0 0 1-.287-.845c.017-.29.11-.57.27-.811.068-.113.192-.313.372-.6s.391-.628.633-1.022c.243-.395.488-.798.736-1.209l.7-1.157.736-1.2h4.326l-3.346 5.458a1.079 1.079 0 0 0-.17.541c.012.202.082.396.203.558h.001Z"/><path fill="#D4EEFC" d="M51.656 12.36a3.185 3.185 0 0 0-.837-.62 6.475 6.475 0 0 0-1.013-.416c-.357-.113-.726-.21-1.105-.289-.29-.068-.561-.135-.812-.203a3.703 3.703 0 0 1-.67-.247 2.209 2.209 0 0 1-.51-.34 1.222 1.222 0 0 1-.327-.474 1.853 1.853 0 0 1-.108-.671 2.068 2.068 0 0 1 .108-.696c.07-.198.184-.376.335-.518.157-.146.335-.266.528-.357.22-.101.454-.17.695-.203a5.79 5.79 0 0 1 .862-.06 7.216 7.216 0 0 1 1.574.17c.252.056.5.126.745.212.228.08.45.18.661.297l.235-1.494a4.135 4.135 0 0 0-.745-.305 9.914 9.914 0 0 0-.796-.204 7.847 7.847 0 0 0-.82-.127 8.46 8.46 0 0 0-.854-.043 7.034 7.034 0 0 0-1.758.204 3.95 3.95 0 0 0-1.364.628c-.38.276-.684.643-.888 1.07a3.499 3.499 0 0 0-.31 1.528c-.009.407.056.813.193 1.196.12.322.305.614.544.858.236.239.507.44.804.594.314.165.642.3.98.408.351.113.711.21 1.08.289.3.067.58.138.837.212.238.067.47.155.694.263.192.092.37.212.528.357.15.142.266.316.343.509.089.232.131.48.126.73.004.265-.036.53-.118.781-.073.218-.187.42-.335.594a1.613 1.613 0 0 1-.535.408 2.676 2.676 0 0 1-.729.22 5.72 5.72 0 0 1-.929.068c-.302 0-.604-.02-.904-.059-.312-.04-.625-.093-.938-.162a9.294 9.294 0 0 1-.912-.246 17.007 17.007 0 0 1-.845-.297l.217 1.681c.286.108.576.202.871.28.267.071.538.128.812.17.262.04.524.07.787.093.262.023.527.034.795.034.6.004 1.197-.059 1.783-.186a4.24 4.24 0 0 0 1.457-.612c.414-.278.749-.661.971-1.112a3.806 3.806 0 0 0 .343-1.706 3.884 3.884 0 0 0-.192-1.29 2.515 2.515 0 0 0-.554-.917ZM61.677 16.927a.754.754 0 0 1-.653-.272 1.477 1.477 0 0 1-.184-.9l.033-3.497a4.13 4.13 0 0 0-.134-1.087 2.676 2.676 0 0 0-.402-.866 2.285 2.285 0 0 0-.694-.628 3.532 3.532 0 0 0-1.013-.39 5.881 5.881 0 0 0-1.323-.136c-.353 0-.705.022-1.055.068-.33.042-.658.107-.98.195a8.034 8.034 0 0 0-.878.297l-.201 1.443a10.062 10.062 0 0 1 1.523-.424 6.05 6.05 0 0 1 .695-.093 9.24 9.24 0 0 1 .678-.026c.342-.007.682.033 1.013.119.242.061.464.184.645.357.161.168.277.375.335.603.071.28.105.568.1.857l-.002.426-1.956.134a5.141 5.141 0 0 0-1.942.441c-.46.204-.856.53-1.148.943a2.214 2.214 0 0 0-.376 1.248c-.004.417.097.83.293 1.197.205.378.513.687.887.89.457.242.967.359 1.482.34a3.81 3.81 0 0 0 1.414-.237c.392-.155.75-.386 1.055-.679.116-.113.226-.231.33-.356.032.176.094.345.181.5.15.26.379.463.653.578.303.123.628.184.954.178.101 0 .198-.003.293-.008.093-.006.186-.02.277-.043l.242-.06c.066-.014.13-.034.193-.059l.184-1.137a1.472 1.472 0 0 1-.284.068 1.9 1.9 0 0 1-.235.016Zm-2.788-.764a3.22 3.22 0 0 1-.586.374 2.628 2.628 0 0 1-.653.22 3.663 3.663 0 0 1-.712.068 1.861 1.861 0 0 1-.795-.153 1.096 1.096 0 0 1-.494-.432 1.283 1.283 0 0 1-.167-.67c-.016-.284.06-.565.218-.8.182-.215.429-.364.703-.424a5.041 5.041 0 0 1 1.306-.135h1.466l-.008 1.685a2.275 2.275 0 0 1-.278.267ZM59.952 5.11h-1.808l-1.423 3.04h1.306l1.925-3.04ZM70.224 9.686a3.56 3.56 0 0 0-2-.535 5.046 5.046 0 0 0-1.24.16 5.343 5.343 0 0 0-1.49.642v-.785l-1.708.272v12.122h1.708v-3.801l.034.015c.309.13.632.224.962.28.39.065.785.097 1.18.093a4.136 4.136 0 0 0 2.152-.56 4.008 4.008 0 0 0 1.507-1.621 5.489 5.489 0 0 0 .56-2.59 5.344 5.344 0 0 0-.426-2.207 3.399 3.399 0 0 0-1.24-1.485Zm-.444 5.679c-.2.45-.538.825-.963 1.07-.471.25-.999.373-1.531.356a4.714 4.714 0 0 1-1.791-.346v-5.358c.021-.01.044-.024.066-.034.246-.114.475-.21.687-.29a3.398 3.398 0 0 1 1.188-.22 3.061 3.061 0 0 1 1.49.33c.404.224.72.58.896 1.01.213.552.313 1.141.293 1.733a4.099 4.099 0 0 1-.335 1.749ZM85.535 9.507a2.882 2.882 0 0 0-1.49-.356 3.872 3.872 0 0 0-1.323.23 4.648 4.648 0 0 0-1.206.652 6.123 6.123 0 0 0-.594.51 2.12 2.12 0 0 0-.862-1.019 2.92 2.92 0 0 0-1.507-.356c-.448 0-.892.077-1.314.229a4.74 4.74 0 0 0-1.566.928V9.17l-1.708.255v8.574h1.708v-6.46c.201-.134.411-.254.628-.359a4.27 4.27 0 0 1 .829-.297c.263-.066.532-.1.803-.102.25-.008.497.036.729.127.191.083.36.21.494.374.145.189.245.41.293.645.065.304.096.614.092.925v5.145h1.708v-5.501c0-.325-.021-.65-.065-.971.193-.13.394-.247.6-.353.261-.134.537-.236.82-.306.27-.067.545-.101.821-.102.246-.006.49.037.72.127.195.08.368.21.502.374.146.189.246.41.293.645.066.304.097.614.092.925v5.162h1.708v-5.518a4.995 4.995 0 0 0-.301-1.885 2.18 2.18 0 0 0-.904-1.086ZM89.268 17.997h1.708v-8.83l-1.708.256v8.574ZM91.144 6.035c-.1-.174-.241-.32-.41-.424a1.073 1.073 0 0 0-.578-.161 1.114 1.114 0 0 0-.586.16c-.175.104-.322.25-.427.425-.106.176-.162.38-.16.586-.001.21.054.415.16.594a1.159 1.159 0 0 0 1.013.577 1.1 1.1 0 0 0 .988-.577c.1-.181.152-.386.15-.594a1.16 1.16 0 0 0-.15-.586Z"/></svg>
